svg/postgresql.svg

<svg viewBox="0 0 20 20" xmlns="http://www.w3.org/2000/svg">
<rect width="100%" height="100%" fill="#336791"/>
<path d="M17.9576 11.759C17.8617 11.4678 17.6094 11.2647 17.2838 11.2162C17.1301 11.1932 16.9542 11.2028 16.746 11.2458C16.3834 11.3207 16.1141 11.3492 15.9174 11.3547C16.659 10.1025 17.262 8.67417 17.6094 7.32962C18.1706 5.1559 17.8706 4.16555 17.5201 3.71761C16.5923 2.53201 15.2392 1.89512 13.6061 1.87548C12.7356 1.86473 11.9704 2.03702 11.5718 2.16076C11.2003 2.09519 10.801 2.05851 10.3817 2.05184C9.59684 2.03924 8.90233 2.21041 8.30969 2.56239C7.98114 2.45161 7.45442 2.29489 6.84585 2.19485C5.41498 1.95995 4.26154 2.14298 3.41776 2.73912C2.39619 3.46085 1.92281 4.715 2.01023 6.46673C2.03801 7.02285 2.34915 8.71456 2.83882 10.3196C3.12033 11.2417 3.42035 12.0076 3.73075 12.5959C4.17079 13.4303 4.64195 13.9219 5.17088 14.0983C5.46721 14.1972 6.00577 14.2661 6.57212 13.7945C6.64398 13.8812 6.73954 13.9679 6.86696 14.0479C7.02846 14.1498 7.22588 14.2332 7.42294 14.2824C8.13337 14.4603 8.79899 14.4158 9.36682 14.1665C9.37015 14.2676 9.37274 14.3643 9.37534 14.4473C9.37904 14.5826 9.38275 14.7152 9.38756 14.8393C9.42127 15.6774 9.47831 16.3291 9.64721 16.7848C9.65647 16.81 9.66907 16.8482 9.68203 16.8886C9.76648 17.1468 9.90724 17.5788 10.2658 17.9171C10.6369 18.2676 11.0859 18.375 11.4974 18.375C11.7033 18.375 11.9004 18.348 12.073 18.3113C12.6882 18.1794 13.3868 17.9782 13.8924 17.2583C14.3702 16.5777 14.6025 15.5529 14.6447 13.9375C14.6499 13.8919 14.6551 13.8482 14.6599 13.8067C14.6632 13.7789 14.6666 13.75 14.6699 13.7215L14.7825 13.7315L14.8114 13.7334C15.4381 13.7619 16.2045 13.6289 16.6749 13.4103C17.0468 13.2376 18.2384 12.6085 17.9576 11.759Z" fill="black"/>
<path d="M16.4683 12.9683C16.0953 13.1417 15.5001 13.2514 14.9845 13.2514C14.7374 13.2514 14.5081 13.2262 14.3307 13.1702C14.2466 13.9442 14.0673 15.388 13.9633 15.9923C13.7684 17.1235 13.2643 17.6362 12.1042 17.8852C11.9064 17.9274 11.7268 17.9463 11.5638 17.9463C10.4518 17.9467 10.0999 17.066 9.95586 16.7059C9.77992 16.2661 9.7188 14.8223 9.73139 13.3569C9.33025 13.72 8.82798 13.9068 8.25793 13.9068C8.02346 13.9068 7.77751 13.8753 7.52231 13.8112C7.44897 13.793 6.80632 13.6204 6.81483 13.2091C6.82261 12.8331 7.35933 12.7223 7.5612 12.6808C8.27163 12.5344 8.31756 12.4759 8.53832 12.1958C8.58277 12.1391 8.635 12.0728 8.69908 11.9968C8.69797 11.9887 8.6976 11.9802 8.69686 11.972C8.37831 11.9635 8.0668 11.879 7.78344 11.7267C7.5912 11.9313 7.07115 12.4933 6.51444 13.1632C6.17885 13.5663 5.8566 13.6848 5.59324 13.6848C5.4862 13.6848 5.38878 13.6652 5.30433 13.637C4.58352 13.3966 3.89827 12.2273 3.26785 10.1614C2.78891 8.59193 2.48555 6.95321 2.45888 6.42043C2.37962 4.83691 2.78817 3.71614 3.67307 3.08888C4.41462 2.56351 5.4536 2.40383 6.76113 2.61464C7.51601 2.73616 8.13421 2.94809 8.37423 3.03775C8.92503 2.66132 9.59138 2.47793 10.3618 2.49015C10.7815 2.49719 11.1675 2.55054 11.5212 2.63872C11.6908 2.56499 12.5572 2.30342 13.5806 2.31416C15.0726 2.3301 16.3046 2.90585 17.1443 3.97883C17.3528 4.24522 17.4536 4.68092 17.4443 5.2741C17.4362 5.81429 17.3343 6.47711 17.1498 7.19107C16.7609 8.6979 16.0401 10.3133 15.1634 11.6493C15.2963 11.7471 15.7008 11.9075 16.8276 11.6749C17.2073 11.5963 17.4362 11.6656 17.5069 11.8805C17.6443 12.2958 16.8876 12.7738 16.4683 12.9683Z" fill="white"/>
<path d="M9.72666 12.6404C9.71962 12.6623 9.70925 12.6834 9.6948 12.7034C9.10623 13.5282 8.24838 13.5174 7.6324 13.3633C7.50535 13.3314 7.39126 13.2766 7.32422 13.2306C7.38015 13.2043 7.47979 13.1688 7.6524 13.1332C8.48803 12.9609 8.61693 12.8394 8.89881 12.4815C8.96326 12.3996 9.0366 12.3066 9.13809 12.1932C9.28921 12.0239 9.35848 12.0528 9.48367 12.1047C9.55998 12.1362 9.6348 12.2162 9.68406 12.3133C9.70073 12.3455 9.71407 12.3792 9.72407 12.4141C9.73888 12.4667 9.75555 12.5567 9.72666 12.6404Z" fill="#336791"/>
<path d="M9.3628 7.3256C9.28909 6.98511 9.11204 6.78763 8.82201 6.72094C8.18566 6.57534 7.29336 7.05328 7.10075 7.22408C7.1026 7.26262 7.10556 7.31152 7.1089 7.36747C7.1326 7.76576 7.17631 8.5075 7.05741 9.35965C6.9837 9.88539 7.1126 10.4004 7.41337 10.8057C7.46004 10.8694 7.51153 10.9302 7.56672 10.988C7.88823 11.3237 8.31123 11.5093 8.74571 11.5108C8.79572 11.3059 8.87646 11.0899 8.96277 10.8576L8.9824 10.805L8.99722 10.7657C9.04129 10.6468 9.09278 10.5319 9.1476 10.4104C9.41318 9.82056 9.74321 9.08659 9.3628 7.3256ZM9.15056 7.23372C9.13427 7.3508 8.94943 7.509 8.74608 7.509C8.72867 7.509 8.71089 7.50789 8.69349 7.50529C8.57125 7.48862 8.44828 7.41156 8.36383 7.30004C8.33419 7.26039 8.28567 7.1837 8.2953 7.11479C8.299 7.08848 8.31234 7.05032 8.35568 7.01772C8.43235 6.95955 8.58459 6.93769 8.75238 6.9614C8.95832 6.98993 9.17094 7.08737 9.15056 7.23372Z" fill="#336791"/>
<path d="M7.23334 11.3077C7.28594 11.3625 7.34038 11.414 7.39706 11.4625C7.17111 11.7048 6.68032 12.2398 6.15843 12.8678C5.78876 13.3121 5.53355 13.2269 5.44984 13.1991C4.90276 13.0164 4.26825 11.8601 3.70857 10.0265C3.22446 8.43999 2.94147 6.84461 2.91924 6.39704C2.8485 4.98247 3.19112 3.9962 3.93822 3.46638C5.15352 2.60423 7.15148 3.11959 7.95526 3.38154C7.94377 3.39265 7.93229 3.40414 7.92081 3.41562C7.8045 3.53307 7.69857 3.65793 7.60226 3.78798C6.60254 5.13956 6.63477 7.05616 6.63736 7.16287V7.16472C6.63736 7.21807 6.6418 7.29292 6.64773 7.39443C6.67069 7.77716 6.71292 8.48926 6.59995 9.29547C6.50549 9.97127 6.68403 10.6341 7.09221 11.1461C7.13666 11.2017 7.1837 11.2558 7.23334 11.3077Z" fill="#336791"/>
<path d="M14.4769 11.4363C14.5221 11.493 14.5662 11.5478 14.5995 11.596C14.4892 11.6278 14.3417 11.6771 14.2117 11.789C14.0799 11.9016 13.9658 12.0787 13.925 12.3663C13.911 12.4685 13.9058 12.5849 13.9124 12.7171C13.898 12.8998 13.848 13.3503 13.7858 13.8679C13.785 13.8731 13.7843 13.8786 13.7839 13.8838C13.695 14.6226 13.5809 15.4929 13.5083 15.9138C13.3443 16.8671 12.9935 17.222 12.0075 17.4336C10.9855 17.6526 10.6236 17.1309 10.3851 16.5348C10.2325 16.1535 10.1569 14.4496 10.2077 12.556H10.2069C10.208 12.5126 10.2054 12.4678 10.1992 12.4226C10.1992 12.4222 10.1988 12.4218 10.1988 12.4218C10.1929 12.3774 10.1836 12.3322 10.1706 12.287C10.0914 12.0102 9.89949 11.7786 9.66873 11.6805C9.66688 11.6793 9.66466 11.6786 9.66281 11.6779C9.5702 11.6397 9.40019 11.5689 9.19573 11.6212C9.23906 11.4415 9.31463 11.2385 9.39649 11.0187L9.43093 10.9265C9.46983 10.8224 9.51835 10.7142 9.56983 10.6001C9.63206 10.4619 9.69948 10.3122 9.76133 10.1418C9.97802 9.55082 10.1354 8.70978 9.81504 7.22778C9.66021 6.51271 9.14387 6.16333 8.36121 6.24447C7.8919 6.293 7.46261 6.48233 7.24851 6.59089C7.20258 6.61423 7.16036 6.63683 7.12109 6.65832C7.17628 5.99327 7.37297 4.79544 8.06636 3.94514C8.12415 3.874 8.18601 3.80509 8.2512 3.73914C8.7831 3.20266 9.49131 2.93775 10.3544 2.95183C11.1126 2.96442 11.7493 3.14486 12.2771 3.40569C12.9327 3.72951 13.4194 4.17707 13.7602 4.58018C14.2906 5.2067 14.5777 5.83803 14.6925 6.17852C13.8306 6.09108 13.2446 6.26114 12.9475 6.68611C12.3012 7.61014 13.3009 9.4041 13.7817 10.2663C13.8699 10.4241 13.9458 10.5608 13.9699 10.6186C14.0821 10.8909 14.218 11.098 14.341 11.2618C14.3888 11.3263 14.4351 11.3841 14.4769 11.4363Z" fill="#336791"/>
<path d="M14.5927 8.06772C14.602 7.77539 14.639 7.53456 14.675 7.30189C14.7083 7.08515 14.7402 6.87804 14.7439 6.64944C13.8316 6.53569 13.4682 6.74614 13.3252 6.95066C12.8444 7.63793 13.7834 9.32223 14.1842 10.041C14.2875 10.2259 14.3616 10.3596 14.3961 10.4426C14.4338 10.5345 14.4753 10.6179 14.5183 10.6938C14.7942 10.107 14.7228 9.51193 14.6535 8.93432C14.619 8.64829 14.5835 8.35226 14.5927 8.06772ZM14.2157 7.16777C14.1712 7.21482 14.0775 7.29559 13.9501 7.31338C13.9334 7.3156 13.9171 7.31671 13.9012 7.31671C13.7101 7.31671 13.5486 7.16406 13.536 7.07477C13.5204 6.95955 13.7079 6.87211 13.9016 6.84543C14.0949 6.81839 14.2994 6.85099 14.3153 6.96585C14.3157 6.96992 14.3161 6.974 14.3161 6.97844C14.3161 7.02957 14.2783 7.10219 14.2157 7.16777Z" fill="#336791"/>
<path d="M16.7801 4.26338C17.3539 4.99734 16.722 8.33704 14.8918 11.2177C14.8737 11.1947 14.8552 11.1714 14.8363 11.1477C14.8289 11.1384 14.8214 11.1288 14.8133 11.1191C15.0781 10.6816 15.1656 10.2466 15.1767 9.82831C15.1767 9.82831 15.1767 9.82757 15.177 9.8272C15.1856 9.49856 15.1474 9.1803 15.1111 8.87908C15.0774 8.59787 15.0455 8.33222 15.0537 8.08288C15.0618 7.81834 15.097 7.59122 15.1307 7.37188C15.1726 7.10142 15.2156 6.82169 15.2033 6.49157C15.2119 6.45712 15.2152 6.41636 15.2107 6.36857C15.1807 6.05216 14.82 5.10627 14.0843 4.24967C13.8106 3.93067 13.4517 3.58648 12.9976 3.28711C12.7846 3.14706 12.5509 3.01665 12.2949 2.90364C12.6394 2.83214 13.1106 2.76545 13.6376 2.77693C14.9741 2.80657 16.0316 3.30675 16.7801 4.26338Z" fill="#336791"/>
<path d="M16.9298 12.125C16.8017 12.2447 16.5828 12.4054 16.2724 12.5496C16.0057 12.6733 15.559 12.7663 15.1349 12.7863C14.6659 12.8082 14.4278 12.7337 14.3715 12.6881C14.3626 12.5051 14.3796 12.3777 14.4148 12.2865C14.4207 12.2706 14.427 12.2558 14.4344 12.2421C14.507 12.1009 14.6311 12.0661 14.76 12.0298C14.7937 12.0205 14.8263 12.0112 14.8578 12.0001C14.8774 12.0161 14.8989 12.032 14.9223 12.0475C15.299 12.2962 15.9709 12.3232 16.9195 12.1272C16.9228 12.1265 16.9265 12.1257 16.9298 12.125Z" fill="#336791"/>
</svg>

<svg xmlns="http://www.w3.org/2000/svg" viewBox="0 0 20 20">
  <rect width="100%" height="100%" fill="#336791"/>
  <path d="M17.96 11.76a.81.81 0 0 0-.68-.54 1.54 1.54 0 0 0-.53.03c-.37.07-.64.1-.83.1a16 16 0 0 0 1.69-4.02c.56-2.17.26-3.16-.09-3.61a4.85 4.85 0 0 0-3.91-1.84 6.93 6.93 0 0 0-2.04.28c-.37-.06-.77-.1-1.19-.1a3.87 3.87 0 0 0-2.07.5 9.5 9.5 0 0 0-1.46-.37c-1.44-.23-2.59-.05-3.43.55C2.4 3.46 1.92 4.7 2 6.47c.03.55.34 2.24.83 3.85.28.92.58 1.69.9 2.28.43.83.9 1.32 1.43 1.5.3.1.84.17 1.4-.3.07.08.17.17.3.25a2.98 2.98 0 0 0 2.5.12v.28l.02.39a6.86 6.86 0 0 0 .3 2.05c.08.26.22.69.58 1.03.37.35.82.45 1.23.45.2 0 .4-.02.57-.06.62-.13 1.32-.33 1.82-1.05.48-.68.71-1.7.75-3.32l.02-.13.01-.09.11.01h.03c.63.03 1.4-.1 1.86-.32.38-.17 1.57-.8 1.29-1.65Z"/>
  <path fill="#fff" d="M16.47 12.97c-.37.17-.97.28-1.49.28-.24 0-.47-.02-.65-.08-.08.77-.26 2.22-.37 2.82-.2 1.13-.7 1.65-1.86 1.9-.2.04-.37.06-.54.06-1.1 0-1.46-.88-1.6-1.24-.18-.44-.24-1.89-.23-3.35-.4.36-.9.55-1.47.55-.24 0-.48-.03-.74-.1-.07-.02-.71-.19-.7-.6 0-.38.54-.49.74-.53.71-.15.76-.2.98-.48l.16-.2v-.03c-.32 0-.63-.1-.92-.24-.19.2-.7.76-1.27 1.43-.33.4-.65.52-.92.52-.1 0-.2-.01-.29-.04-.72-.24-1.4-1.41-2.03-3.48-.48-1.57-.78-3.2-.81-3.74-.08-1.58.33-2.7 1.21-3.33.74-.53 1.78-.69 3.1-.48.75.13 1.36.34 1.6.43a3.35 3.35 0 0 1 2-.55c.41 0 .8.06 1.15.15a6.15 6.15 0 0 1 2.06-.33c1.5.02 2.72.6 3.56 1.67.21.27.31.7.3 1.3 0 .53-.1 1.2-.29 1.91a15.51 15.51 0 0 1-1.99 4.46c.14.1.54.26 1.67.02.38-.07.6 0 .68.21.13.42-.62.9-1.04 1.09Z"/>
  <path fill="#336791" d="m9.73 12.64-.04.06c-.58.83-1.44.82-2.06.66a1.02 1.02 0 0 1-.3-.13c.05-.03.15-.06.32-.1.84-.17.97-.3 1.25-.65l.24-.29c.15-.17.22-.14.34-.09.08.04.15.12.2.21l.04.1a.4.4 0 0 1 0 .23ZM9.36 7.33c-.07-.34-.25-.54-.54-.6-.63-.15-1.53.32-1.72.5v.14c.03.4.08 1.14-.04 1.99a1.96 1.96 0 0 0 .5 1.63c.33.33.75.52 1.19.52.05-.2.13-.42.21-.65l.02-.05.02-.04.15-.36c.26-.59.6-1.32.21-3.08Zm-.2-.1c-.03.12-.21.28-.41.28h-.06a.52.52 0 0 1-.33-.21c-.03-.04-.07-.12-.06-.19 0-.02.01-.06.06-.1.07-.05.22-.07.4-.05.2.03.41.13.4.27Z"/>
  <path fill="#336791" d="m7.23 11.3.17.16c-.23.24-.72.78-1.24 1.4-.37.45-.63.37-.71.34-.55-.18-1.18-1.34-1.74-3.17a20.7 20.7 0 0 1-.8-3.63C2.86 4.98 3.2 4 3.95 3.47c1.21-.87 3.21-.35 4.02-.09l-.04.04c-.12.11-.22.24-.32.37a6.1 6.1 0 0 0-.96 3.37v.23c.03.39.07 1.1-.04 1.9a2.41 2.41 0 0 0 .63 2.02Z"/>
  <path fill="#336791" d="M14.48 11.44c.04.05.09.1.12.16a1 1 0 0 0-.39.19.88.88 0 0 0-.29.58v.35a39.05 39.05 0 0 1-.14 1.16c-.08.74-.2 1.61-.27 2.03-.17.96-.52 1.31-1.5 1.52-1.02.22-1.39-.3-1.62-.9-.16-.38-.23-2.08-.18-3.97a.83.83 0 0 0-.04-.27.94.94 0 0 0-.5-.6v-.01c-.1-.04-.27-.11-.47-.06.04-.18.11-.38.2-.6l.03-.1.14-.32.2-.46c.2-.59.37-1.43.05-2.91-.16-.72-.68-1.07-1.46-.99a3.35 3.35 0 0 0-1.24.42 5.13 5.13 0 0 1 1.13-2.92c.53-.54 1.24-.8 2.1-.79a4.45 4.45 0 0 1 3.41 1.63c.53.63.82 1.26.93 1.6-.86-.09-1.45.08-1.74.5-.65.93.35 2.72.83 3.59l.19.35c.11.27.25.48.37.64l.14.18Z"/>
  <path fill="#336791" d="M14.6 8.07a6 6 0 0 1 .08-.77c.03-.21.06-.42.06-.65-.9-.11-1.27.1-1.41.3-.49.69.45 2.37.85 3.1a4.96 4.96 0 0 1 .34.64c.27-.58.2-1.18.13-1.76a5.8 5.8 0 0 1-.06-.86Zm-.38-.9a.47.47 0 0 1-.27.14h-.05c-.19 0-.35-.15-.36-.24-.02-.11.17-.2.36-.22.2-.03.4 0 .42.12 0 .06-.04.13-.1.2Z"/>
  <path fill="#336791" d="M16.78 4.26c.57.74-.06 4.08-1.89 6.96l-.05-.07-.03-.03c.27-.44.36-.87.37-1.3 0-.32-.03-.64-.07-.94-.03-.28-.06-.55-.06-.8.01-.26.05-.49.08-.7a4.42 4.42 0 0 0 .08-1.01 4.94 4.94 0 0 0-1.13-2.12A5.23 5.23 0 0 0 12.3 2.9c.35-.07.82-.13 1.35-.12a3.9 3.9 0 0 1 3.14 1.48ZM16.93 12.13c-.13.11-.35.28-.66.42-.26.12-.71.22-1.14.24-.46.02-.7-.06-.76-.1a1 1 0 0 1 .06-.45c.08-.14.2-.17.33-.21l.1-.03a.8.8 0 0 0 .06.05c.38.25 1.05.27 2 .08h.01Z"/>
</svg>
